X: 10484
T: Donnelly's Arm
R: reel
M: 4/4
K: Aminor
|:A~E3 A~B3|BcBA G3A|BcBA ^GBdB|~c2Bc BAGB|
A~E3 A~B3|BcBA G3A|BcBA ^GBdB|1 BA^GB A3B:|2 BA^GB A3^g||
aefe edcg|fgfe d3c|B2GB cABA|d~B3 edBc|
Aaa^g aec=g|fgfe dBcd|e3f edBc|ABcd e~f3|
a~A3 ABcg|fgfe d3c|B2GB cABA|d~B3 edBc|
A~E3 A~B3|BcBA G3A|BcBA ^GBdB|BA^GB A3||

